img/dangers__floppy-disk.svg

<svg width="40" height="40" viewBox="0 0 40 40" fill="none" xmlns="http://www.w3.org/2000/svg">
<g clip-path="url(#clip0)">
<path d="M38.0466 5.02991L34.9701 1.95343C33.7201 0.701599 32.0251 0 30.2567 0H4.58344C2.0517 0 0 2.0517 0 4.58344V35.4166C0 37.9483 2.0517 40 4.58344 40H35.4166C37.9483 40 40 37.9483 40 35.4166V9.74335C40 7.97485 39.2984 6.27991 38.0466 5.02991ZM6.66656 10.4166V6.25C6.66656 5.56 7.22656 5 7.91656 5H25.4166C26.1066 5 26.6666 5.56 26.6666 6.25V10.4166C26.6666 11.1066 26.1066 11.6666 25.4166 11.6666H7.91656C7.22656 11.6666 6.66656 11.1066 6.66656 10.4166ZM20 33.3334C15.8585 33.3334 12.5 29.975 12.5 25.8334C12.5 21.6916 15.8585 18.3334 20 18.3334C24.1415 18.3334 27.5 21.6916 27.5 25.8334C27.5 29.975 24.1415 33.3334 20 33.3334Z" fill="#304BAB"/>
</g>
<defs>
<clipPath id="clip0">
<rect width="40" height="40" fill="white"/>
</clipPath>
</defs>
</svg>

<svg width="40" height="40" viewBox="0 0 40 40" fill="none" xmlns="http://www.w3.org/2000/svg"><g clip-path="url(#clip0)"><path d="M38.047 5.03L34.97 1.953A6.658 6.658 0 0030.257 0H4.583A4.583 4.583 0 000 4.583v30.834A4.583 4.583 0 004.583 40h30.834A4.583 4.583 0 0040 35.417V9.743a6.658 6.658 0 00-1.953-4.713zm-31.38 5.387V6.25c0-.69.56-1.25 1.25-1.25h17.5c.69 0 1.25.56 1.25 1.25v4.167c0 .69-.56 1.25-1.25 1.25h-17.5c-.69 0-1.25-.56-1.25-1.25zM20 33.333a7.5 7.5 0 11.001-15.001A7.5 7.5 0 0120 33.333z" fill="#304BAB"/></g><defs><clipPath id="clip0"><path fill="#fff" d="M0 0h40v40H0z"/></clipPath></defs></svg>
